assets/Globe showing asia-australia/Flat/globe_showing_asia-australia_flat.svg

<svg width="32" height="32" viewBox="0 0 32 32" fill="none" xmlns="http://www.w3.org/2000/svg">
<path d="M16 30C23.732 30 30 23.732 30 16C30 8.26801 23.732 2 16 2C8.26801 2 2 8.26801 2 16C2 23.732 8.26801 30 16 30Z" fill="#0074BA"/>
<path d="M3.96101 23.1502L4.55001 22.4902C4.83001 22.1802 4.99001 21.7702 4.99001 21.3502V19.5902C4.99001 19.2602 5.25001 19.0002 5.58001 19.0002C5.81001 19.0002 5.99001 18.8202 5.99001 18.5902V18.0002C5.99001 17.4502 5.54001 17.0002 4.99001 17.0002C4.44001 17.0002 3.99001 16.5502 3.99001 16.0002V15.4902C3.99001 15.2202 4.21001 15.0002 4.48001 15.0002C4.76001 15.0002 5.00001 15.2302 4.98001 15.5102C4.98001 15.7802 5.20001 16.0002 5.47001 16.0002H6.07001C6.58001 16.0002 6.99001 15.5902 6.99001 15.0802V14.5002C6.99001 14.2202 7.21001 14.0002 7.49001 14.0002C7.77001 14.0002 7.99001 14.2202 7.99001 14.5002V15.4502C7.99001 15.7602 8.24001 16.0002 8.54001 16.0002C8.79001 16.0002 8.99001 16.2002 8.99001 16.4502V17.3802C8.99001 17.7202 9.27001 18.0002 9.61001 18.0002C9.85001 18.0002 10.06 17.8702 10.17 17.6602L11.79 14.4102C11.92 14.1602 12.18 14.0002 12.46 14.0002C12.78 14.0002 13.06 14.2102 13.17 14.5102L13.87 16.6002C13.95 16.8402 14.17 17.0002 14.42 17.0002C14.74 17.0002 15 16.7402 15 16.4202V14.5002C15 14.2202 15.22 14.0002 15.5 14.0002C15.78 14.0002 16 13.7802 16 13.5002V12.0602C16 11.4802 16.47 11.0002 17.06 11.0002C17.58 11.0002 18 10.5802 17.99 10.0602V9.9402C17.99 9.4202 17.57 9.0002 17.05 9.0002H16.49C16.21 9.0002 15.99 8.7802 15.99 8.5002C15.99 8.2202 16.21 8.0002 16.49 8.0002H18.12C18.6 8.0002 18.99 8.3902 18.99 8.8702V9.5002C18.99 9.7802 19.21 10.0002 19.49 10.0002C19.77 10.0002 19.99 9.7802 19.99 9.5002V8.9202C19.99 7.8602 20.85 7.0002 21.91 7.0002H23.49C23.77 7.0002 23.99 6.7802 23.99 6.5002C23.99 6.2202 23.77 6.0002 23.49 6.0002H20.59C20.26 6.0002 19.99 5.7302 19.99 5.4002C19.99 5.1802 19.81 5.0002 19.59 5.0002H15.06C14.37 5.0002 13.69 4.7902 13.12 4.4002L10.9504 2.93848C5.7138 4.96431 2 10.0485 2 16.0001C2 18.6123 2.71542 21.0574 3.96101 23.1502ZM18 18.6401V17.7101C18 17.3201 18.31 17.0001 18.71 16.9801C18.9 16.9801 19.08 17.0601 19.21 17.1901L20.8 18.7801C20.94 18.9101 21.01 19.0901 21.01 19.2801C21.01 19.6701 20.69 19.9901 20.3 19.9901H20.16C20.06 19.9901 19.96 19.9701 19.87 19.9301L18.42 19.2801C18.16 19.1701 18 18.9201 18 18.6401ZM15.47 18.0001H14.52C14.23 18.0001 13.99 18.2401 13.99 18.5301V19.4801C13.99 19.7701 14.23 20.0101 14.52 20.0101H15.47C15.76 20.0101 16 19.7701 16 19.4801V18.5301C16 18.2401 15.76 18.0001 15.47 18.0001ZM12 19.5001C12 19.7801 12.22 20.0001 12.5 20.0001C12.77 20.0001 13 19.7801 13 19.5001V18.5001C13 18.2201 12.78 18.0001 12.5 18.0001C12.22 18.0001 12 18.2201 12 18.5001V19.5001ZM18.79 11.2101L17.2 12.8001C17.07 12.9301 16.99 13.1101 16.99 13.3001C16.99 13.6901 17.31 14.0101 17.7 14.0101C17.89 14.0101 18.07 13.9401 18.2 13.8001L19.79 12.2101C19.92 12.0801 20 11.9001 20 11.7101C20 11.3201 19.68 11.0001 19.29 11.0001C19.1 11.0001 18.92 11.0701 18.79 11.2101ZM22.2 25.8001L23.79 24.2101C23.92 24.0701 24.1 24.0001 24.29 24.0001C24.68 24.0001 25 24.3201 25 24.7101C25 24.9001 24.92 25.0801 24.79 25.2101L23.2 26.8001C23.07 26.9401 22.89 27.0101 22.7 27.0101C22.31 27.0101 21.99 26.6901 21.99 26.3001C21.99 26.1101 22.07 25.9301 22.2 25.8001ZM15 22.7402V23.9702C15 24.5402 15.46 25.0002 16.03 25.0002H17.56C17.83 25.0002 18.09 25.1102 18.28 25.3002L18.69 25.7102C18.88 25.9002 19.14 26.0102 19.41 26.0102H20.35C20.74 26.0102 21.1 25.7902 21.27 25.4402L21.88 24.2302C21.95 24.0902 21.99 23.9302 21.99 23.7702V22.6502C21.99 22.2602 21.77 21.9002 21.42 21.7302L20.21 21.1202C20.07 21.0502 19.91 21.0102 19.75 21.0102H18.16C18.05 21.0102 17.94 21.0302 17.83 21.0602L15.69 21.7702C15.28 21.9102 15 22.3002 15 22.7402Z" fill="#00D26A"/>
</svg>

<svg xmlns="http://www.w3.org/2000/svg" width="32" height="32" fill="none"><path fill="#0074BA" d="M16 30c7.732 0 14-6.268 14-14S23.732 2 16 2 2 8.268 2 16s6.268 14 14 14Z"/><path fill="#00D26A" d="m3.961 23.15.589-.66c.28-.31.44-.72.44-1.14v-1.76c0-.33.26-.59.59-.59.23 0 .41-.18.41-.41V18c0-.55-.45-1-1-1s-1-.45-1-1v-.51c0-.27.22-.49.49-.49.28 0 .52.23.5.51 0 .27.22.49.49.49h.6c.51 0 .92-.41.92-.92v-.58c0-.28.22-.5.5-.5s.5.22.5.5v.95c0 .31.25.55.55.55.25 0 .45.2.45.45v.93a.623.623 0 0 0 1.18.28l1.62-3.25a.76.76 0 0 1 .67-.41c.32 0 .6.21.71.51l.7 2.09a.58.58 0 0 0 1.13-.18V14.5c0-.28.22-.5.5-.5s.5-.22.5-.5v-1.44c0-.58.47-1.06 1.06-1.06.52 0 .94-.42.93-.94v-.12c0-.52-.42-.94-.94-.94h-.56c-.28 0-.5-.22-.5-.5s.22-.5.5-.5h1.63c.48 0 .87.39.87.87v.63c0 .28.22.5.5.5s.5-.22.5-.5v-.58c0-1.06.86-1.92 1.92-1.92h1.58c.28 0 .5-.22.5-.5s-.22-.5-.5-.5h-2.9c-.33 0-.6-.27-.6-.6 0-.22-.18-.4-.4-.4h-4.53c-.69 0-1.37-.21-1.94-.6l-2.17-1.462C5.714 4.964 2 10.048 2 16c0 2.612.715 5.057 1.961 7.15ZM18 18.64v-.93c0-.39.31-.71.71-.73.19 0 .37.08.5.21l1.59 1.59c.14.13.21.31.21.5 0 .39-.32.71-.71.71h-.14c-.1 0-.2-.02-.29-.06l-1.45-.65a.687.687 0 0 1-.42-.64ZM15.47 18h-.95c-.29 0-.53.24-.53.53v.95c0 .29.24.53.53.53h.95c.29 0 .53-.24.53-.53v-.95c0-.29-.24-.53-.53-.53ZM12 19.5c0 .28.22.5.5.5.27 0 .5-.22.5-.5v-1c0-.28-.22-.5-.5-.5s-.5.22-.5.5v1Zm6.79-8.29L17.2 12.8c-.13.13-.21.31-.21.5 0 .39.32.71.71.71.19 0 .37-.07.5-.21l1.59-1.59c.13-.13.21-.31.21-.5 0-.39-.32-.71-.71-.71-.19 0-.37.07-.5.21ZM22.2 25.8l1.59-1.59c.13-.14.31-.21.5-.21.39 0 .71.32.71.71 0 .19-.08.37-.21.5L23.2 26.8c-.13.14-.31.21-.5.21-.39 0-.71-.32-.71-.71 0-.19.08-.37.21-.5ZM15 22.74v1.23c0 .57.46 1.03 1.03 1.03h1.53c.27 0 .53.11.72.3l.41.41c.19.19.45.3.72.3h.94c.39 0 .75-.22.92-.57l.61-1.21c.07-.14.11-.3.11-.46v-1.12c0-.39-.22-.75-.57-.92l-1.21-.61c-.14-.07-.3-.11-.46-.11h-1.59c-.11 0-.22.02-.33.05l-2.14.71c-.41.14-.69.53-.69.97Z"/></svg>
